X: 1
T: Picklehopper's Jig
C: Buz Lloyd
O: Carrboro, North Carolina
%R: jig
Z: Collected and edited 2014 by John Chambers <jc:trillian.mit.edu>
B: GEMS The Best of the Country Dance and Song Society Diamond Jubilee Music, Dance and Song Contest 1993 p.75 #1
M: 6/8
L: 1/8
K: D
% - - - - - - - - - - - - - - - - - - - - - - - - -
|:\
"D"ABd edg | "D"fed "Bm"edB | "D"ABd edg | "D"fed "Bm"B3 |\
"D"ABd edg | "D"fed "G"edB | "Em"gfe "D/F#"fed | "G"edB "A"A3 :|
|:\
"D"faf baf | "Bm"efd "G"edB | "D"faf baf | "Bm"efd "G"B3 |\
"D"faf baf | "Bm"efd "G"edB | "Em"gfe "D/F#"fed | "G"edB "A"A3 :|
% - - - - - - - - - - - - - - - - - - - - - - - - -
